packages/icons/src/components/Logo/assets/light/vault.svg

<svg width="20" height="20" viewBox="0 0 20 20" fill="none" xmlns="http://www.w3.org/2000/svg">
<g >
<path d="M10.2174 10C10.5435 10 10.788 9.72828 10.788 9.42937C10.788 9.13045 10.5435 8.85871 10.2174 8.85871C9.8913 8.85871 9.64674 9.13045 9.64674 9.42937C9.64674 9.72828 9.8913 10 10.2174 10ZM8.50543 8.42393C8.83152 8.42393 9.07609 8.15219 9.07609 7.85328C9.07609 7.52719 8.83152 7.28262 8.50543 7.28262C8.17935 7.28262 7.93478 7.55436 7.93478 7.85328C7.93478 8.17937 8.17935 8.42393 8.50543 8.42393V8.42393ZM10.2174 8.42393C10.5435 8.42393 10.788 8.15219 10.788 7.85328C10.788 7.52719 10.5435 7.28262 10.2174 7.28262C9.8913 7.28262 9.64674 7.55436 9.64674 7.85328C9.64674 8.17937 9.8913 8.42393 10.2174 8.42393ZM11.9293 8.42393C12.2554 8.42393 12.5 8.15219 12.5 7.85328C12.5 7.52719 12.2554 7.28262 11.9293 7.28262C11.6033 7.28262 11.3587 7.55436 11.3587 7.85328C11.3587 8.17937 11.6304 8.42393 11.9293 8.42393ZM8.50543 6.87501C8.83152 6.87501 9.07609 6.60328 9.07609 6.30436C9.07609 5.97827 8.83152 5.73371 8.50543 5.73371C8.17935 5.73371 7.93478 6.00545 7.93478 6.30436C7.93478 6.63045 8.17935 6.87501 8.50543 6.87501ZM10.2174 6.87501C10.5435 6.87501 10.788 6.60328 10.788 6.30436C10.788 5.97827 10.5435 5.73371 10.2174 5.73371C9.8913 5.73371 9.64674 6.00545 9.64674 6.30436C9.64674 6.63045 9.8913 6.87501 10.2174 6.87501ZM11.9293 6.87501C12.2554 6.87501 12.5 6.60328 12.5 6.30436C12.5 5.97827 12.2554 5.73371 11.9293 5.73371C11.6033 5.73371 11.3587 6.00545 11.3587 6.30436C11.3587 6.63045 11.6304 6.87501 11.9293 6.87501ZM10.2174 5.3261C10.5435 5.3261 10.788 5.05436 10.788 4.75545C10.788 4.42936 10.5435 4.18479 10.2174 4.18479C9.8913 4.18479 9.64674 4.45653 9.64674 4.75545C9.64674 5.05436 9.8913 5.3261 10.2174 5.3261ZM11.9293 5.3261C12.2554 5.3261 12.5 5.05436 12.5 4.75545C12.5 4.42936 12.2554 4.18479 11.9293 4.18479C11.6033 4.18479 11.3587 4.45653 11.3587 4.75545C11.3587 5.05436 11.6304 5.3261 11.9293 5.3261ZM8.50543 5.3261C8.83152 5.3261 9.07609 5.05436 9.07609 4.75545C9.07609 4.42936 8.83152 4.18479 8.50543 4.18479C8.17935 4.18479 7.93478 4.45653 7.93478 4.75545C7.93478 5.05436 8.17935 5.3261 8.50543 5.3261ZM10 19.5653L0 0H20L10 19.5653Z" fill="black"/>
</g>
<defs>
<clipPath id="clip0_341_639">
<rect width="20" height="20" fill="white"/>
</clipPath>
</defs>
</svg>

<svg xmlns="http://www.w3.org/2000/svg" width="20" height="20" fill="none" viewBox="0 0 20 20">
    <path fill="#000" d="M10.217 10a.574.574 0 0 0 .571-.57.574.574 0 0 0-.57-.571.574.574 0 0 0-.571.57c0 .3.244.571.57.571M8.505 8.424a.574.574 0 0 0 .571-.57.557.557 0 0 0-.57-.571.574.574 0 0 0-.571.57c0 .326.244.57.57.57m1.712 0a.574.574 0 0 0 .571-.57.557.557 0 0 0-.57-.571.574.574 0 0 0-.571.57c0 .326.244.57.57.57m1.712 0a.574.574 0 0 0 .571-.57.557.557 0 0 0-.57-.571.574.574 0 0 0-.571.57c0 .326.271.57.57.57M8.505 6.875a.574.574 0 0 0 .571-.57.557.557 0 0 0-.57-.571.574.574 0 0 0-.571.57c0 .326.244.571.57.571m1.712 0a.574.574 0 0 0 .571-.57.557.557 0 0 0-.57-.571.574.574 0 0 0-.571.57c0 .326.244.571.57.571m1.712 0a.574.574 0 0 0 .571-.57.557.557 0 0 0-.57-.571.574.574 0 0 0-.571.57c0 .326.271.571.57.571m-1.712-1.549a.574.574 0 0 0 .571-.57.557.557 0 0 0-.57-.571.574.574 0 0 0-.571.57c0 .3.244.571.57.571m1.712 0a.574.574 0 0 0 .571-.57.557.557 0 0 0-.57-.571.574.574 0 0 0-.571.57c0 .3.271.571.57.571m-3.424 0a.574.574 0 0 0 .571-.57.557.557 0 0 0-.57-.571.574.574 0 0 0-.571.57c0 .3.244.571.57.571M10 19.566 0 0h20z"/>
</svg>
